frontend/src/assets/copy.svg

<svg width="24" height="24" viewBox="0 0 24 24" fill="none" xmlns="http://www.w3.org/2000/svg">
<path d="M5 15H4C3.46957 15 2.96086 14.7893 2.58579 14.4142C2.21071 14.0391 2 13.5304 2 13V4C2 3.46957 2.21071 2.96086 2.58579 2.58579C2.96086 2.21071 3.46957 2 4 2H13C13.5304 2 14.0391 2.21071 14.4142 2.58579C14.7893 2.96086 15 3.46957 15 4V5M11 9H20C21.1046 9 22 9.89543 22 11V20C22 21.1046 21.1046 22 20 22H11C9.89543 22 9 21.1046 9 20V11C9 9.89543 9.89543 9 11 9Z" stroke="#1E1E1E" stroke-width="3" stroke-linecap="round" stroke-linejoin="round"/>
</svg>

<svg xmlns="http://www.w3.org/2000/svg" width="24" height="24" fill="none"><path stroke="#1E1E1E" stroke-linecap="round" stroke-linejoin="round" stroke-width="3" d="M5 15H4a2 2 0 0 1-2-2V4a2 2 0 0 1 2-2h9a2 2 0 0 1 2 2v1m-4 4h9a2 2 0 0 1 2 2v9a2 2 0 0 1-2 2h-9a2 2 0 0 1-2-2v-9a2 2 0 0 1 2-2"/></svg>
